X:1
T:Title
%%score 1 2
L:1/8
Q:1/4=140
M:3/2
K:F
V:1 treble nm="Strings 1, Soprano"
V:2 bass nm="Strings 1, Bass"
V:1
 z4 z2 [Fc]2 [FA]2 [CG]2 | [CF]6 C2 [CF]2 [FA]2 | [EG]8 [EG]4 | [EB]6 [EG]2 [Ec]2 [GB]2 | %4
w: 1.~My~ bless ed~|Lord,~ I~ will~ be~|Thine,~ Thy~|blood~ has~ made~ me~|
 [FA]6 [Fc]2 [FA]2 [CG]2 | [CF]6 [A,C]2 [CF]2 [FA]2 | [EG]8 [EG]4 | [EB]6 [EB]2 [FA]2 [CG]2 | %8
w: free;~ Thy~ pre cious~|word~ and~ love~ di|vine~ Has~|won~ my~ heart~ to~|
 [CF]6 [Fc]2 [Fd]2 [Fc]2 | [FA]6 [CF]2 [FA]2 [CG]2 | [CF]8 [Fc]4 | [Fd]6 [Ff]2 [Fe]2 [Fd]2 | %12
w: Thee.~ * * *||||
 [Fc]6 [CF]2 [FA]2 [CG]2 | [CF]6 [Fc]2 [Fd]2 [Fc]2 | [FA]8 F4 | [EG]6 [GB]2 [FA]2 [EG]2 | F8 z4 |] %17
w: |||||
V:2
 z4 z2 [F,A,]2 [F,C]2 [F,B,]2 | [F,A,]6 [F,A,]2 [F,A,]2 [F,C]2 | [C,C]8 [C,C]4 | %3
 [C,C]6 [C,C]2 [C,C]2 [E,C]2 | [F,C]6 [F,A,]2 [F,C]2 [F,B,]2 | [F,A,]6 F,2 [F,A,]2 [F,C]2 | %6
 [C,C]8 [C,C]4 | [C,G,]6 [C,G,]2 [C,C]2 [C,B,]2 | [F,,F,A,]6 [F,A,]2 [F,B,]2 [F,A,]2 | %9
 [F,C]6 [F,A,]2 [F,C]2 [F,B,]2 | [F,A,]8 [F,A,]4 | [B,,B,]6 [B,,D]2 [B,,C]2 [B,,B,]2 | %12
 [F,A,]6 [F,A,]2 [F,C]2 [F,B,]2 | [F,A,]6 [F,A,]2 [F,B,]2 [F,A,]2 | [F,C]8 [A,,C]4 | %15
 [C,C]6 [C,C]2 [C,C]2 [C,B,]2 | [F,,F,A,]8 z4 |] %17

